X:6
T:Fisher's Hornpipe
R:hornpipe
O:Ireland
M:4/4
L:1/8
K:D
(3(ABc) | "D" dAFA "G" GBAG | "D" EDED "G" GBAG | "D" FDFD "G" GABG | "D" (3(FED) FD "A" E2 (3(ABc) |
          "D" dAFA "G" GBAG | "D" EDED "G" GBAG | "D" FAdf "G" gece | "D" d2 d2 d2 :|
cd      | "A" ecAc     ecge | "D" fdAd     fdaf | "A" ecAc     ecge | "Em" edcB "A" A2 A2 | 
          "G" BGDG     BGdB | "D" AFDF     AFdA | "G" BdcB "A" AGFE | "D" D2 D2 D2 :|
